!!!OTL: "Das Welt - Ende" WENN ICH GLEICH KEIN SCHATZ NICHT HAB
!!!ARE: Europa, Mitteleuropa, Deutschland, Lothringen
!!!SCT: Z1168
!!!YEM: Copyright 1995, estate of Helmut Schaffrath.
**kern
*ICvox
*Ivox
*M3/4
*k[f#]
*G:
=1
{8d
8d
4g
4g
=2
4g
8f#
8e
4f#}
=3
{8d
8f#
4a
4a
=4
4a
4g
4r}
=5
{8dd
8cc
4b
4dd
=6
4dd
8cc
8b
4cc}
=7
{8cc
8b
4a
4cc
=8
4cc
8b
8a
4b}
=9
{8g
8b
4dd
4b
=10
4a
4g
4r}
==
!!!AGN: Liebes - Lied, verlassene Liebe
!!!ONB: ESAC (Essen Associative Code) Database: ZUCCAL
!!!AMT: simple triple
!!!AIN: vox
!!!EED: Helmut Schaffrath
!!!EEV: 1.0
*-
